SVG_Azure_All/Intune Exchange Access.svg

<?xml version="1.0" encoding="UTF-8" standalone="no"?>
<!-- Generated by Microsoft Visio, SVG Export Intune Exchange Access.svg Page-1 -->

<svg
   xmlns:dc="http://purl.org/dc/elements/1.1/"
   xmlns:cc="http://creativecommons.org/ns#"
   xmlns:rdf="http://www.w3.org/1999/02/22-rdf-syntax-ns#"
   xmlns:svg="http://www.w3.org/2000/svg"
   xmlns="http://www.w3.org/2000/svg"
   xmlns:sodipodi="http://sodipodi.sourceforge.net/DTD/sodipodi-0.dtd"
   xmlns:inkscape="http://www.inkscape.org/namespaces/inkscape"
   width="0.66930473in"
   height="0.78741127in"
   viewBox="0 0 48.190001 56.693709"
   xml:space="preserve"
   class="st6"
   version="1.1"
   id="svg53"
   sodipodi:docname="Intune Exchange Access.svg"
   style="font-size:12px;overflow:visible;color-interpolation-filters:sRGB;fill:none;fill-rule:evenodd;stroke-linecap:square;stroke-miterlimit:3"
   inkscape:version="0.92.5 (2060ec1f9f, 2020-04-08)"><metadata
   id="metadata57"><rdf:RDF><cc:Work
       rdf:about=""><dc:format>image/svg+xml</dc:format><dc:type
         rdf:resource="http://purl.org/dc/dcmitype/StillImage" /></cc:Work></rdf:RDF></metadata><sodipodi:namedview
   pagecolor="#ffffff"
   bordercolor="#666666"
   borderopacity="1"
   objecttolerance="10"
   gridtolerance="10"
   guidetolerance="10"
   inkscape:pageopacity="0"
   inkscape:pageshadow="2"
   inkscape:window-width="640"
   inkscape:window-height="480"
   id="namedview55"
   showgrid="false"
   inkscape:zoom="1.2912567"
   inkscape:cx="32.125845"
   inkscape:cy="37.792096"
   inkscape:window-x="0"
   inkscape:window-y="0"
   inkscape:window-maximized="0"
   inkscape:current-layer="svg53" />
	<style
   type="text/css"
   id="style2">
	<![CDATA[
		.st1 {fill:#0078d4;stroke:none;stroke-linecap:butt;stroke-width:40.1916}
		.st2 {fill:url(#grad0-8);stroke:none;stroke-linecap:butt;stroke-width:40.1916}
		.st3 {fill:#ffbd02;stroke:none;stroke-linecap:butt;stroke-width:40.1916}
		.st4 {fill:#ffe452;stroke:none;stroke-linecap:butt;stroke-width:40.1916}
		.st5 {fill:#ffd400;fill-opacity:0.5;stroke:none;stroke-linecap:butt;stroke-width:40.1916}
		.st6 {fill:none;fill-rule:evenodd;font-size:12px;overflow:visible;stroke-linecap:square;stroke-miterlimit:3}
	]]>
	</style>

	<defs
   id="Patterns_And_Gradients">
		<linearGradient
   id="grad0-8"
   x1="-0.022186202"
   y1="78.595192"
   x2="47.92397"
   y2="78.595192"
   gradientTransform="scale(0.92312887,1.0832724)"
   gradientUnits="userSpaceOnUse">
			<stop
   offset="0"
   stop-color="#0078d4"
   stop-opacity="1"
   id="stop4" />
			<stop
   offset="0.06"
   stop-color="#0a7cd7"
   stop-opacity="1"
   id="stop6" />
			<stop
   offset="0.34"
   stop-color="#2e8ce1"
   stop-opacity="1"
   id="stop8" />
			<stop
   offset="0.59"
   stop-color="#4897e9"
   stop-opacity="1"
   id="stop10" />
			<stop
   offset="0.82"
   stop-color="#589eed"
   stop-opacity="1"
   id="stop12" />
			<stop
   offset="1"
   stop-color="#5ea0ef"
   stop-opacity="1"
   id="stop14" />
		</linearGradient>
	</defs>
	<g
   id="g51"
   transform="translate(-40.191595,-40.1884)">
		<title
   id="title18">Page-1</title>
		<g
   id="group4013-1"
   transform="translate(40.1916,-40.1916)">
			<title
   id="title20">Intune Exchange Access</title>
			<g
   id="group4014-2">
				<title
   id="title22">layer1</title>
				<g
   id="shape4015-3">
					<title
   id="title24">path19</title>
					<path
   d="m 48.19,106.85 c 0,15.24 -19.13,27.5 -23.31,30 a 1.46337,1.43343 0 0 1 -1.57,0 C 19.13,134.39 0,122.12 0,106.85 V 88.52 a 1.4974,1.46677 0 0 1 1.46,-1.47 c 14.91,-0.37 11.47,-6.67 22.63,-6.67 11.17,0 7.73,6.3 22.64,6.67 a 1.4974,1.46677 0 0 1 1.46,1.47 z"
   class="st1"
   id="path26"
   inkscape:connector-curvature="0"
   style="fill:#0078d4;stroke:none;stroke-width:40.1916008;stroke-linecap:butt" />
				</g>
				<g
   id="shape4016-5"
   transform="translate(1.97384,-2.39052)">
					<title
   id="title29">path21</title>
					<path
   d="m 44.24,109.38 c 0,14 -17.56,25.23 -21.4,27.5 a 1.36127,1.33343 0 0 1 -1.43,0 C 17.56,134.61 0,123.38 0,109.38 V 92.71 a 1.3953,1.36676 0 0 1 1.36,-1.6 c 13.68,-0.24 10.55,-5.97 20.76,-5.97 10.21,0 7.08,5.73 20.76,5.97 a 1.3953,1.36676 0 0 1 1.36,1.33 z"
   class="st2"
   id="path31"
   inkscape:connector-curvature="0"
   style="fill:url(#grad0-8);stroke:none;stroke-width:40.1916008;stroke-linecap:butt" />
				</g>
				<g
   id="shape4017-9"
   transform="translate(13.2724,-18.356)">
					<title
   id="title34">path23</title>
					<path
   d="m 20.52,122.61 h -1.36 v -4.74 a 8.91632,8.73395 -180 0 0 -2.38,-6.03 8.06553,7.90056 -180 0 0 -11.85,0 8.88229,8.70061 -180 0 0 -2.38,6.03 v 4.74 H 1.19 A 1.08902,1.06674 -180 0 0 0,123.74 v 12.27 a 1.08902,1.06674 -180 0 0 1.12,1.07 h 19.4 a 1.08902,1.06674 -180 0 0 1.12,-1.07 v -12.27 a 1.08902,1.06674 -180 0 0 -1.12,-1.13 z m -5.27,0 H 6.4 v -4.8 a 4.86654,4.767 0 0 1 1.39,-3.34 4.04978,3.96695 0 0 1 6.06,0 5.30895,5.20037 0 0 1 0.55,0.67 4.76445,4.667 0 0 1 0.85,2.63 z"
   class="st3"
   id="path36"
   inkscape:connector-curvature="0"
   style="fill:#ffbd02;stroke:none;stroke-width:40.1916008;stroke-linecap:butt" />
				</g>
				<g
   id="shape4018-11"
   transform="translate(13.2723,-18.6899)">
					<title
   id="title39">path25</title>
					<path
   d="m 1.12,122.94 h 19.4 a 1.08902,1.06674 0 0 1 0.72,0.27 L 0.41,137.08 A 1.12305,1.10008 0 0 1 0,136.28 v -12.2 a 1.08902,1.06674 0 0 1 1.12,-1.14 z"
   class="st4"
   id="path41"
   inkscape:connector-curvature="0"
   style="fill:#ffe452;stroke:none;stroke-width:40.1916008;stroke-linecap:butt" />
				</g>
				<g
   id="shape4019-13"
   transform="translate(13.6808,-18.6897)">
					<title
   id="title44">path27</title>
					<path
   d="M 20.11,122.94 H 0.71 A 1.08902,1.06674 -180 0 0 0,123.21 l 20.83,13.87 a 1.02095,1.00007 -180 0 0 0.41,-0.8 v -12.2 a 1.08902,1.06674 -180 0 0 -1.13,-1.14 z"
   class="st5"
   id="path46"
   inkscape:connector-curvature="0"
   style="fill:#ffd400;fill-opacity:0.5;stroke:none;stroke-width:40.1916008;stroke-linecap:butt" />
				</g>
			</g>
		</g>
	</g>
</svg>

<?xml version="1.0" encoding="UTF-8" standalone="no"?>
<!DOCTYPE svg PUBLIC "-//W3C//DTD SVG 1.1//EN" "http://www.w3.org/Graphics/SVG/1.1/DTD/svg11.dtd">
<!-- Generated by Microsoft Visio, SVG Export Intune Exchange Access.svg Page-1 -->
<svg xmlns="http://www.w3.org/2000/svg" xmlns:xlink="http://www.w3.org/1999/xlink" xmlns:ev="http://www.w3.org/2001/xml-events"
		width="1.78572in" height="1.90383in" viewBox="0 0 128.572 137.076" xml:space="preserve" color-interpolation-filters="sRGB"
		class="st6">
	<style type="text/css">
	<![CDATA[
		.st1 {fill:#0078d4;stroke:none;stroke-linecap:butt;stroke-width:40.1916}
		.st2 {fill:url(#grad0-8);stroke:none;stroke-linecap:butt;stroke-width:40.1916}
		.st3 {fill:#ffbd02;stroke:none;stroke-linecap:butt;stroke-width:40.1916}
		.st4 {fill:#ffe452;stroke:none;stroke-linecap:butt;stroke-width:40.1916}
		.st5 {fill:#ffd400;fill-opacity:0.5;stroke:none;stroke-linecap:butt;stroke-width:40.1916}
		.st6 {fill:none;fill-rule:evenodd;font-size:12px;overflow:visible;stroke-linecap:square;stroke-miterlimit:3}
	]]>
	</style>

	<defs id="Patterns_And_Gradients">
		<linearGradient id="grad0-8" x1="0" y1="0" x2="1" y2="0" gradientTransform="rotate(-90 0.5 0.5)">
			<stop offset="0" stop-color="#0078d4" stop-opacity="1"/>
			<stop offset="0.06" stop-color="#0a7cd7" stop-opacity="1"/>
			<stop offset="0.34" stop-color="#2e8ce1" stop-opacity="1"/>
			<stop offset="0.59" stop-color="#4897e9" stop-opacity="1"/>
			<stop offset="0.82" stop-color="#589eed" stop-opacity="1"/>
			<stop offset="1" stop-color="#5ea0ef" stop-opacity="1"/>
		</linearGradient>
	</defs>
	<g>
		<title>Page-1</title>
		<g id="group3929-1" transform="translate(40.1916,-40.1916)">
			<title>Intune Exchange Access</title>
			<g id="group3930-2">
				<title>layer1</title>
				<g id="shape3931-3">
					<title>path19</title>
					<path d="M48.19 106.85 C48.19 122.09 29.06 134.35 24.88 136.85 A1.46337 1.43343 0 0 1 23.31 136.85 C19.13 134.39
								 0 122.12 0 106.85 L0 88.52 A1.4974 1.46677 0 0 1 1.46 87.05 C16.37 86.68 12.93 80.38 24.09 80.38
								 C35.26 80.38 31.82 86.68 46.73 87.05 A1.4974 1.46677 0 0 1 48.19 88.52 L48.19 106.85 Z"
							class="st1"/>
				</g>
				<g id="shape3932-5" transform="translate(1.97384,-2.39052)">
					<title>path21</title>
					<path d="M44.24 109.38 C44.24 123.38 26.68 134.61 22.84 136.88 A1.36127 1.33343 0 0 1 21.41 136.88 C17.56 134.61
								 0 123.38 0 109.38 L0 92.71 A1.3953 1.36676 0 0 1 1.36 91.11 C15.04 90.87 11.91 85.14 22.12 85.14
								 C32.33 85.14 29.2 90.87 42.88 91.11 A1.3953 1.36676 0 0 1 44.24 92.44 L44.24 109.38 Z" class="st2"/>
				</g>
				<g id="shape3933-9" transform="translate(13.2724,-18.356)">
					<title>path23</title>
					<path d="M20.52 122.61 L19.16 122.61 L19.16 117.87 A8.91632 8.73395 -180 0 0 16.78 111.84 A8.06553 7.90056 -180
								 0 0 4.93 111.84 A8.88229 8.70061 -180 0 0 2.55 117.87 L2.55 122.61 L1.19 122.61 A1.08902 1.06674
								 -180 0 0 -0 123.74 L0 136.01 A1.08902 1.06674 -180 0 0 1.12 137.08 L20.52 137.08 A1.08902 1.06674
								 -180 0 0 21.64 136.01 L21.64 123.74 A1.08902 1.06674 -180 0 0 20.52 122.61 L20.52 122.61 ZM15.25
								 122.61 L6.4 122.61 L6.4 117.81 A4.86654 4.767 0 0 1 7.79 114.47 A4.04978 3.96695 0 0 1 13.85 114.47
								 A5.30895 5.20037 0 0 1 14.4 115.14 A4.76445 4.667 0 0 1 15.25 117.77 L15.25 122.61 Z" class="st3"/>
				</g>
				<g id="shape3934-11" transform="translate(13.2723,-18.6899)">
					<title>path25</title>
					<path d="M1.12 122.94 L20.52 122.94 A1.08902 1.06674 0 0 1 21.24 123.21 L0.41 137.08 A1.12305 1.10008 0 0 1 0
								 136.28 L0 124.08 A1.08902 1.06674 0 0 1 1.12 122.94 L1.12 122.94 Z" class="st4"/>
				</g>
				<g id="shape3935-13" transform="translate(13.6808,-18.6897)">
					<title>path27</title>
					<path d="M20.11 122.94 L0.71 122.94 A1.08902 1.06674 -180 0 0 0 123.21 L20.83 137.08 A1.02095 1.00007 -180 0
								 0 21.24 136.28 L21.24 124.08 A1.08902 1.06674 -180 0 0 20.11 122.94 L20.11 122.94 Z" class="st5"/>
				</g>
			</g>
		</g>
	</g>
</svg>
